packages/sources/icons/src/vitamix/mac-fill.svg

<svg width="16" height="16" viewBox="0 0 16 16" xmlns="http://www.w3.org/2000/svg"><path fill-rule="evenodd" clip-rule="evenodd" d="M9.3334 13.3333V12H14.0054C14.3634 12 14.6667 11.6993 14.6667 11.3287V2.67133C14.6667 2.29933 14.3707 2 14.0054 2H1.99473C1.63673 2 1.3334 2.30067 1.3334 2.67133V11.3287C1.3318 11.5055 1.40065 11.6756 1.52473 11.8016C1.64881 11.9276 1.81793 11.9989 1.99473 12H6.66673V13.3333L5.33073 14.0027L5.3334 14.6667H10.6667V14L9.3334 13.3333ZM2.66675 10.6667V9.33333H13.3334V10.6667H2.66675Z"/></svg>

<svg width="16" height="16" xmlns="http://www.w3.org/2000/svg"><path fill-rule="evenodd" clip-rule="evenodd" d="M9.333 13.333V12h4.672c.358 0 .662-.3.662-.671V2.67a.666.666 0 0 0-.662-.67H1.995c-.358 0-.662.3-.662.671v8.658a.665.665 0 0 0 .662.671h4.672v1.333l-1.336.67.002.664h5.334V14l-1.334-.667Zm-6.666-2.666V9.333h10.666v1.334H2.667Z"/></svg>
